X:62
T:Gan Ainm
R:Jig
S:Unknown box player (Fisher Street?)
D:Clare FM broadcast. 
P:ABAABA 
M:6/8
Z:Bernie Stocks
K:G
|: ~B3 BAG | ~F3 AFD | DBB BAG | BdB cAG | ~B3 BAG | ~F3 AFD | dcd fed | cAF G3 :|
| B2d gdB | dgB dgB | c2e gec | egc egc | d2f afd | fad fad | gfg efg | afd d3 |
B2d gdB | dgB dgB | c2e gec | egc egc | d2f afd | fad fad | ~g3 fed | cAF G3 ||
<end>
<start>
